lib/preview/nrk-logo-preview-nrk-super-with-bg.svg

<svg width="74" height="24" viewBox="0 0 74 24" fill="none" xmlns="http://www.w3.org/2000/svg">
<g clip-path="url(#clip0_4164_1483)">
<rect x="0.566406" width="72.5781" height="24" rx="12" fill="#00B3C7"/>
</g>
<path d="M9.99854 18.0001V6.00121H13.9357V18.0001H9.99854ZM19.2923 7.9109L21.5566 18.0001H17.2477L14.544 6.00121H16.9607C17.5149 5.99402 18.0526 6.18937 18.473 6.55051C18.8942 6.8965 19.1835 7.37682 19.2923 7.9109ZM22.1481 18.0001V6.00121H26.0852V18.0001H22.1481ZM29.059 10.5642C28.6347 10.5684 28.2173 10.4574 27.8511 10.2431C27.4898 10.0342 27.1896 9.73408 26.9808 9.37272C26.7663 9.00645 26.6553 8.58888 26.6595 8.16444C26.6546 7.74258 26.7658 7.3275 26.9808 6.96455C27.1919 6.60711 27.4916 6.31022 27.8511 6.10264C28.2174 5.88862 28.6348 5.77764 29.059 5.78151C29.4807 5.77696 29.8957 5.88805 30.2588 6.10264C30.6146 6.31203 30.9112 6.60868 31.1206 6.96455C31.3354 7.3276 31.4465 7.74262 31.4419 8.16444C31.4458 8.58885 31.3348 9.00635 31.1206 9.37272C30.9134 9.7325 30.6164 10.0324 30.2588 10.2431C29.8956 10.4581 29.481 10.5692 29.059 10.5642ZM32.0502 18.0001V6.00121H35.9877V18.0001H32.0502ZM40.9723 12.5584C40.9833 12.57 41.0678 12.708 41.2257 12.9724C41.3836 13.2368 41.5892 13.5748 41.8425 13.9864C42.0959 14.3978 42.3634 14.8344 42.6449 15.2961C42.9263 15.7579 43.1911 16.1945 43.4394 16.6059C43.6866 17.0173 43.9683 17.482 44.2842 18.0001H39.9584C39.6878 17.5607 39.4427 17.1636 39.223 16.8087C39.0033 16.4538 38.7698 16.0707 38.5224 15.6595C38.2743 15.2486 38.0291 14.8487 37.7867 14.4596C37.5443 14.0705 37.336 13.7297 37.1618 13.4372C36.9868 13.1444 36.8656 12.9472 36.7982 12.8457C36.6311 12.5936 36.5322 12.3024 36.5112 12.0007C36.528 11.7111 36.6211 11.4311 36.7813 11.1892C36.8489 11.0766 36.9728 10.8765 37.1531 10.5893C37.3333 10.302 37.5445 9.96117 37.7867 9.56685C38.0289 9.17252 38.2742 8.76973 38.5224 8.3585C38.7706 7.94727 39.0041 7.56136 39.223 7.20083C39.4431 6.84067 39.6882 6.44071 39.9584 6.00094H44.2842L40.9382 11.4596C40.8346 11.6217 40.7763 11.8085 40.7692 12.0007C40.7803 12.2024 40.8514 12.3964 40.9723 12.5584Z" fill="white"/>
<path d="M58.2941 3.83084C59.3495 4.27848 60.3087 4.9255 61.119 5.73644C61.9301 6.54686 62.5771 7.50615 63.0247 8.56171C63.4869 9.65149 63.721 10.8244 63.7126 12.0081C63.72 13.1865 63.4858 14.354 63.0247 15.4385C62.577 16.494 61.9299 17.4532 61.119 18.2637C60.3086 19.0746 59.3494 19.7216 58.2941 20.1693C57.2041 20.6313 56.0312 20.8653 54.8474 20.857C53.6636 20.8654 52.4906 20.6314 51.4007 20.1693C50.347 19.7229 49.3902 19.0756 48.5838 18.2637C47.7772 17.4515 47.1333 16.4925 46.6867 15.4385C46.2254 14.354 45.9913 13.1865 45.9988 12.0081C45.9902 10.8244 46.2244 9.65145 46.6867 8.56171C47.1331 7.5076 47.777 6.54861 48.5838 5.73644C49.3902 4.92444 50.347 4.2772 51.4007 3.83084C52.4906 3.36867 53.6636 3.13464 54.8474 3.14317C56.0312 3.13474 57.2041 3.36877 58.2941 3.83084ZM57.6312 18.5537C58.4783 18.1989 59.249 17.684 59.9011 17.0372C60.5531 16.391 61.0712 15.6225 61.4256 14.7756C61.7932 13.8996 61.9792 12.9581 61.9724 12.0081C61.9791 11.0582 61.7931 10.1168 61.4256 9.24083C61.0698 8.39229 60.552 7.62126 59.9011 6.97094C59.2496 6.31933 58.479 5.79889 57.6312 5.4379C56.751 5.06435 55.8035 4.87551 54.8474 4.88307C53.8967 4.87654 52.9548 5.06539 52.0801 5.4379C51.2321 5.79882 50.4614 6.31926 49.8097 6.97094C49.1581 7.62244 48.6378 8.39304 48.2769 9.24083C47.9044 10.1155 47.7155 11.0574 47.7221 12.0081C47.7154 12.9589 47.9043 13.9009 48.2769 14.7756C48.6364 15.6217 49.157 16.3899 49.8097 17.0372C50.4619 17.6841 51.2328 18.199 52.0801 18.5537C52.9561 18.9211 53.8975 19.1072 54.8474 19.1005C55.8028 19.1082 56.7498 18.9222 57.6312 18.5537ZM50.9779 13.0026C50.8528 12.8795 50.7539 12.7323 50.687 12.57C50.6202 12.4077 50.5867 12.2336 50.5888 12.0581C50.5845 11.8773 50.6168 11.6976 50.6836 11.5296C50.7505 11.3616 50.8506 11.2088 50.9779 11.0804C51.1005 10.9517 51.2485 10.8499 51.4125 10.7814C51.5765 10.713 51.753 10.6794 51.9307 10.6827C52.1134 10.6792 52.2948 10.7126 52.4643 10.781C52.6337 10.8493 52.7876 10.9512 52.9167 11.0804C53.0484 11.2063 53.1525 11.3583 53.2225 11.5266C53.2924 11.6949 53.3266 11.8759 53.3229 12.0581C53.3243 12.2351 53.2889 12.4104 53.2189 12.573C53.149 12.7356 53.0461 12.8819 52.9167 13.0026C52.7876 13.1319 52.6337 13.2337 52.4643 13.302C52.2948 13.3704 52.1134 13.4038 51.9307 13.4003C51.753 13.4037 51.5765 13.37 51.4125 13.3016C51.2485 13.2331 51.1005 13.1313 50.9779 13.0026ZM57.7138 10.1028C57.7249 10.0693 57.7472 10.0693 57.7804 10.1028L58.1781 11.1799C58.185 11.2094 58.2021 11.2355 58.2263 11.2537C58.2505 11.2719 58.2804 11.2811 58.3106 11.2795L59.4869 11.3124C59.5089 11.3124 59.52 11.321 59.52 11.3375C59.5167 11.3604 59.5049 11.3811 59.4869 11.3955L58.6418 12.1246C58.625 12.1294 58.6094 12.1376 58.596 12.1488C58.5826 12.1599 58.5717 12.1737 58.5639 12.1893C58.5561 12.2049 58.5516 12.2219 58.5508 12.2393C58.5499 12.2567 58.5527 12.2741 58.5589 12.2903L58.8575 13.3674C58.8575 13.4227 58.8406 13.4503 58.8075 13.4503L57.8298 12.804C57.7656 12.7813 57.6955 12.7813 57.6312 12.804L56.703 13.4503C56.6588 13.4503 56.6423 13.4227 56.6536 13.3674L56.9518 12.2903C56.9546 12.2578 56.9483 12.2251 56.9337 12.1959C56.919 12.1666 56.8967 12.142 56.869 12.1246L55.991 11.3955C55.981 11.3778 55.9754 11.3579 55.9745 11.3375C55.9745 11.321 55.9797 11.3124 55.991 11.3124L57.1673 11.2795C57.1998 11.2829 57.2326 11.2748 57.2598 11.2566C57.287 11.2384 57.307 11.2112 57.3164 11.1799L57.7138 10.1028Z" fill="white"/>
<defs>
<clipPath id="clip0_4164_1483">
<rect width="74" height="24" fill="white"/>
</clipPath>
</defs>
</svg>

<svg xmlns="http://www.w3.org/2000/svg" viewBox="0 0 74 24"><g clip-path="url(#a)"><rect width="72.578" height="24" x=".566" fill="#00B3C7" rx="12"/></g><path fill="#fff" d="M9.999 18V6.001h3.937v12H9.999Zm9.293-10.09L21.557 18h-4.31L14.545 6.001h2.417a2.276 2.276 0 0 1 1.512.55c.421.345.71.826.82 1.36ZM22.148 18V6.001h3.937v12h-3.937Zm6.911-7.436a2.382 2.382 0 0 1-2.4-2.4 2.302 2.302 0 0 1 .322-1.2 2.41 2.41 0 0 1 3.278-.861c.356.209.652.506.862.862.214.363.326.778.32 1.2a2.401 2.401 0 0 1-1.183 2.079 2.3 2.3 0 0 1-1.199.32ZM32.05 18V6.001h3.938v12H32.05Zm8.922-5.442c.011.012.096.15.254.414.158.265.363.603.617 1.014a339.194 339.194 0 0 1 1.596 2.62L44.284 18h-4.326c-.27-.44-.515-.836-.735-1.191-.22-.355-.453-.738-.7-1.15-.249-.41-.494-.81-.736-1.2-.243-.389-.451-.73-.625-1.022-.175-.293-.296-.49-.364-.591a1.75 1.75 0 0 1-.287-.845c.017-.29.11-.57.27-.812.068-.112.192-.313.372-.6s.392-.628.634-1.022.487-.797.735-1.209l.701-1.157.735-1.2h4.326l-3.346 5.459a1.079 1.079 0 0 0-.169.54c.011.202.082.396.203.558ZM58.294 3.83a8.914 8.914 0 0 1 4.73 4.732 8.67 8.67 0 0 1 .689 3.446 8.629 8.629 0 0 1-.688 3.43 8.918 8.918 0 0 1-4.73 4.731 8.676 8.676 0 0 1-3.448.688 8.672 8.672 0 0 1-3.446-.688 8.82 8.82 0 0 1-2.817-1.905 8.983 8.983 0 0 1-1.897-2.825 8.624 8.624 0 0 1-.688-3.43 8.664 8.664 0 0 1 .688-3.447 8.975 8.975 0 0 1 1.897-2.826A8.817 8.817 0 0 1 51.4 3.831a8.669 8.669 0 0 1 3.446-.688 8.672 8.672 0 0 1 3.447.688Zm-.663 14.724a7.14 7.14 0 0 0 2.27-1.517 7.022 7.022 0 0 0 2.071-5.03 7.025 7.025 0 0 0-.546-2.766A7.077 7.077 0 0 0 59.9 6.97a7.197 7.197 0 0 0-2.27-1.533 6.984 6.984 0 0 0-2.784-.555 6.941 6.941 0 0 0-2.767.555 7.197 7.197 0 0 0-3.803 3.803 6.94 6.94 0 0 0-.555 2.767c-.007.95.182 1.893.555 2.768a7.09 7.09 0 0 0 1.533 2.261 7.138 7.138 0 0 0 2.27 1.517 7.027 7.027 0 0 0 2.767.547 7.07 7.07 0 0 0 2.784-.547Zm-6.653-5.551a1.304 1.304 0 0 1-.39-.945 1.344 1.344 0 0 1 .39-.978 1.283 1.283 0 0 1 .953-.397 1.356 1.356 0 0 1 .986.397 1.317 1.317 0 0 1 .406.978 1.276 1.276 0 0 1-.406.945 1.356 1.356 0 0 1-.986.397 1.283 1.283 0 0 1-.953-.397Zm6.736-2.9c.01-.034.033-.034.066 0l.398 1.077a.13.13 0 0 0 .133.1l1.176.032c.022 0 .033.009.033.026a.09.09 0 0 1-.033.058l-.845.729a.125.125 0 0 0-.091.114c-.001.018.002.035.008.051l.299 1.077c0 .056-.017.083-.05.083l-.978-.646a.298.298 0 0 0-.199 0l-.928.646c-.044 0-.06-.027-.05-.083l.299-1.077a.177.177 0 0 0-.083-.165l-.878-.73a.13.13 0 0 1-.017-.057c0-.017.006-.026.017-.026l1.176-.032a.14.14 0 0 0 .15-.1l.397-1.077Z"/><defs><clipPath id="a"><path fill="#fff" d="M0 0h74v24H0z"/></clipPath></defs></svg>
